X:1
T:Mon coeur se recommande à vous
T:Anonymus assumed F-J. Fétis (1784-1871) or J.-B. Weckerlin (1821-1910) 
T: 
T:565
T: Clément Marot (1496-1544)
C:Anon
Z:
Z:Clément Marot (1496-1544)
%%score 1 2 3 4
L:1/8
Q:1/4=96
M:4/4
K:F
V:1 treble nm="S"
V:2 treble nm="A"
V:3 treble-8 nm="T"
V:4 bass nm="B"
V:1
 F4 A3 B | c2 A2 (FG)(GA) | A4 d4 | c4 B4 | A2 A2 c2 B2 | G4 G4 | F4 A3 B | c2 A2 (FG)(GA) | %8
w: Mon coeur se|re- com- mande _ à _|vous, Tout|plein d'en-|nui et de mar-|ty- re;|Au moins en|dé- pit des- * ja- *|
 A4 f4 | e2 c2 d4 | c4 B2 c2 | (d4 G2 A2 | B4 c2 d2 | c2 A2 G4) | F4 z4!fine! | A4 A2 B2 | %16
w: loux, Fai-|tes qu'a- dieu|vous puis- se|di- * *|||re.|Ma bou- che|
 c2 d2 c2 A2 | (G2 F4 E2 | F4) F2 c2 | A2 B2 G2 A2 | F2 G2 E4 | G2 A2 B2 d2 | ^c2 AA B2 A2 | %23
w: qui sa- vait sou-|ri- * *|* re, Et|con- ter pro- pos|gra- ci- eux,|ne fait main- te-|nant que mau- di- re|
 G2 c2 A2 A2 | F2 FG A4!D.C.! |] %25
w: ceux qui m'ont ban-|ni de vos yeux!|
V:2
 F4 F3 F | G2 F2 F2 E2 | F4 (F2 G2) | (A2 F2) G4 | C2 F2 F2 (GF) | E4 E4 | F4 F3 F | G2 F2 F2 E2 | %8
w: Mon coeur se|re- com- mande à|vous, Tout *|plein * d'en-|nui et de mar- *|ty- re;|Au moins en|dé- pit des ja-|
 F4 z4 | z4 B4 | A2 F2 G4 | (F2 D2) _E4 | (D2 G2) (F4 | E2 F4 E2 | F4) z4 | F4 F2 F2 | %16
w: loux,|Fai-|tes qu'a- dieu|vous * puis-|se * di-||re.|Ma bou- che|
 E2 F2 E2 F2 | (C4 D2 C2- | C4 C2) E2 | F2 G2 E2 F2 | D2 E2 ^C4 | E2 F2 F2 G2 | E2 EE F2 F2 | %23
w: qui sa- vait sou-|ri- * *|* re, Et|con- ter pro- pos|grâ- ci- eux,|ne fait main- te-|nant que mau- di- re|
 G2 G2 F2 F2 | F2 FE E4 |] %25
w: ceux qui m'ont ban-|ni de vos yeux!|
V:3
 c4 d3 d | e2 f2 d2 c2 | c4 d4 | (e2 f2) (d2 e2) | f2 f2 c2 d2 | c4 c4 | A4 d3 d | e2 f2 d2 c2 | %8
w: Mon coeur se|re- com- mande à|vous, Tout|plein * d'en- *|nui et de mar-|ty- re;|Au moins en|dé- pit des ja-|
 c4 z4 | z8 | z4 _e4 | d2 B2 c4 | d4 c2 B2 | (G2 A2) c4 | A4 z4 | d4 d2 d2 | c2 B2 G2 F2 | %17
w: loux,||Fait-|tes qu'a- dieu|vous puis- se|di- * *|re.|Ma bou- che|qui sa- vait sou-|
 (G2 A2) B2 G2 | A4 A2 c2 | d2 d2 c2 c2 | B2 B2 A4 | c2 c2 d2 B2 | A2 AA d2 d2 | c2 c2 c2 d2 | %24
w: ri- * * *|* re, Et|con- ter pro- pos|grâ- ci- eux,|ne fait main- te-|nant que mau- di- re|ceux qui m'ont ban-|
 d2 de ^c4 |] %25
w: ni de vos yeux!|
V:4
 F,4 D,3 D, | C,2 F,2 B,,2 C,2 | F,4 B,4 | A,4 G,4 | F,2 D,2 A,,2 B,,2 | C,4 C,4 | F,4 D,3 D, | %7
w: Mon coeur se|re- com- mande à|vous, Tout|plein d'en-|nui et de mar-|ty- re;|Au moins en|
 C,2 F,2 B,,2 C,2 | F,4 z4 | z8 | z8 | z4 C,4 | B,,2 G,,2 A,,2 B,,2 | C,2 F,2 C,4 | F,4 z4 | z8 | %16
w: dé- pit des ja-|loux,|||Fai-|tes qu'a- dieu vous|puis- se di-|re.||
 z2 B,,2 C,2 D,2 | E,2 F,2 B,,2 C,2 | F,4 F,2 A,2 | D,2 G,2 C,2 F,2 | B,,2 G,,2 A,,4 | %21
w: Ma bou- che|qui sa- vai sou-|ri- re, Et|con- ter pro- pos|grâ- ci- eux,|
 C,2 F,2 B,,2 G,,2 | A,,2 ^C,C, D,2 D,2 | E,2 E,2 F,2 D,2 | B,,2 B,B, A,4 |] %25
w: ne fait main- te-|nant que mau- di- re|ceux qui m'ont ban-|ni de vos yeux!|

